X:12
T:Caroline O'Neill's Hornpipe
M:4/4
R:HornpipeS:phelan-2/36
L:1/8
K:GBc | (3d^cd gd     BGAB | (3cBc ec   AGFA | DGBG  FGAF       | GB    (3def gdBc  |
     (3ded  (3d^cd BGAB | cBAG  FGAF      | GBdg  ecAc       | BGGF  G2         :|
Bd | gfef   gdBd        | (3efe ce   dBGB | edce  dcBd       | (3gab (3gfe d2ef  |
     gfed   cBAG        | FGAB  cdef      | (3gba (3gfe dcBA | BGGF  G2         :|

